!!!COM: Mozart, Wolfgang Amadeus
!!!CDT: 1756/01/27/-1791/12/05/
!!!CNT: German
!!!OTL: Piano Sonata No. 2 in C major
!!!SCT1: K<sup>1</sup> 330
!!!SCT2: K<sup>6</sup> 300h
!!!OMV: Mvmt. 3
!!!OMD: Allegretto
!!!ODT: 1782///
**kern	**kern	**dynam
*staff2	*staff1	*staff1/2
*>[A,A,B,B]	*>[A,A,B,B]	*>[A,A,B,B]
*>norep[A,B]	*>norep[A,B]	*>norep[A,B]
*>A	*>A	*>A
*clefF4	*clefG2	*clefG2
*k[]	*k[]	*k[]
*C:	*C:	*C:
*M2/4	*M2/4	*M2/4
*MM112	*MM112	*MM112
=1-	=1-	=1-
8r	(8.ee\L	.
8C\L	.	.
.	32ff\LL	.
.	32gg\JJJ	.
8E\	8cc\L)	.
8G\J	8b'\ 8dd'\J	.
=2	=2	=2
*	*^	*
8c\L	(8dd/L	8b\L	.
8C\J	16ff/L	8cc\J	.
.	16ee/JJ	.	.
8G/L	4r	4b\ 4dd\)	.
8GG/J	.	.	.
*	*v	*v	*
=3	=3	=3
8r	(8.ee\L	.
8C\L	.	.
.	32ff\LL	.
.	32gg\JJJ	.
8E\	8cc\L)	.
8G\J	8b'\ 8dd'\J	.
=4	=4	=4
8c\L	8dd\ (8ff\L	.
8C\J	8cc\ 8ee\J)	.
8G/L	4b\ 4dd\	.
8GG/J	.	.
=5	=5	=5
(8A\L	(8.ff\L	.
8c\	.	.
.	32gg\LL	.
.	32ff\JJJ	.
8G\	8ee\L	.
8c\J	8ee'\J)	.
=6	=6	=6
8F\L	(8.aa\L	.
8c\	.	.
.	32bb\LL	.
.	32ccc\JJJ	.
8E\	8gg\L)	.
8c\J)	8gg'\J	.
*clefG2	*	*
=7	=7	=7
8r	(16gg\LL	.
.	16ff\)	.
8B/ 8g/	(16ff\	.
.	16dd\JJ	.
8r	(16ff\LL)	.
.	16ee\)	.
8c/ 8g/	(16ee\	.
.	16cc\JJ)	.
*clefF4	*	*
=8	=8	=8
4G\ 4B\	(16cc#\LL	.
.	16dd\	.
.	16ee\	.
.	16dd\JJ	.
4r	16ccn\LL	.
.	16b\	.
.	16a\	.
.	16g\JJ)	.
=9	=9	=9
(16CC/LL	(8.ee\L	.
16EE/	.	.
16GG/	.	.
16C/JJ	32ff\LL	.
.	32gg\JJJ	.
16EE/LL	8cc\L)	.
16E/	.	.
16GG/	8b'\ 8dd'\J	.
16G/JJ	.	.
=10	=10	=10
*	*^	*
16C\LL	(8dd/L	8b\L	.
16E\	.	.	.
16G\	16ff/L	8cc\J	.
16c\JJ	16ee/JJ)	.	.
16GG/LL	4r	4b\ 4dd\	.
16BB/	.	.	.
16D/	.	.	.
16G/JJ)	.	.	.
*	*v	*v	*
=11	=11	=11
(16CC/LL	(8.ee\L	.
16EE/	.	.
16GG/	.	.
16C/JJ	32ff\LL	.
.	32gg\JJJ	.
16EE/LL	8cc\L)	.
16E/	.	.
16GG/	8b'\ 8dd'\J	.
16G/JJ	.	.
=12	=12	=12
16C\LL	8dd\ (8ff\L	.
16E\	.	.
16G\	8cc\ 8ee\J)	.
16c\JJ	.	.
16GG/LL	4b\ 4dd\	.
16BB/	.	.
16D/	.	.
16G/JJ)	.	.
=13	=13	=13
(16A\LL	(8.ff\L	.
16c\	.	.
16A\	.	.
16c\JJ	32gg\LL	.
.	32ff\JJJ	.
16G\LL	8ee\L)	.
16c\	.	.
16G\	8ee'\J	.
16c\JJ	.	.
=14	=14	=14
16F\LL	(8.aa\L	.
16c\	.	.
16F\	.	.
16c\JJ	32bb\LL	.
.	32ccc\JJJ	.
16E\LL	8gg\L)	.
16c\	.	.
16E\	8gg'\J	.
16c\JJ)	.	.
=15	=15	=15
*^	*	*
8r	8r	(16gg#\LL	.
.	.	16aa\	.
(8d/	8F\	16ff\	.
.	.	16dd\JJ	.
8e/L	4G\	8cc\L	.
8d/J)	.	8b\J)	.
*v	*v	*	*
=16	=16	=16
4c\ 4e\	24cc\LL	.
.	24g\	.
.	24ee\JJ	.
.	24cc\LL	.
.	24gg\	.
.	24ee\JJ	.
4r	24ccc\LL	.
.	24bb\	.
.	24aa\JJ	.
.	24gg\LL	.
.	24ff\	.
.	24ee\JJ	.
=17	=17	=17
*^	*	*
8r	8r	24cc#\LL	.
.	.	24dd\	.
.	.	24ff\JJ	.
8A/ 8d/	8F\	24aa\LL	.
.	.	24ff\	.
.	.	24dd\JJ	.
8c/ (8e/L	4G\	24gg\LL	.
.	.	24ee\	.
.	.	24ccn\JJ	.
8d/ 8f/J)	.	24ff\LL	.
.	.	24dd\	.
.	.	24b\JJ	.
*v	*v	*	*
=18	=18	=18
4c\ 4e\	24cc\LL	.
.	24g\	.
.	24ee\JJ	.
.	24cc\LL	.
.	24gg\	.
.	24ee\JJ	.
4r	24ccc\LL	.
.	24bb\	.
.	24aa\JJ	.
.	24gg\LL	.
.	24ff\	.
.	24ee\JJ	.
=19	=19	=19
*^	*	*
8r	8r	24cc#\LL	.
.	.	24dd\	.
.	.	24ff\JJ	.
8A/ 8d/	8F\	24aa\LL	.
.	.	24ff\	.
.	.	24dd\JJ	.
8c/ (8e/L	4G\	24gg\LL	.
.	.	24ee\	.
.	.	24ccn\JJ	.
8d/ 8f/J)	.	24ff\LL	.
.	.	24dd\	.
.	.	24b\JJ	.
*v	*v	*	*
=20	=20	=20
8c\ 8e\L	8cc/L	.
8G'\J	8g'/J	.
4CC/ 4C/	4c/	.
*clefG2	*	*
=21	=21	=21
16c/LL	(4.ee\	.
16g/	.	.
16f#/	.	.
16g/JJ	.	.
16c/LL	.	.
16g/	.	.
.	32ffQ/LLL	.
.	32eeQ/	.
.	32ddQ/	.
.	32eeQ/JJJ	.
16d/	16gg\LL	.
16g/JJ	16ff\JJ	.
=22	=22	=22
16e/LL	16ee\LL	.
16g/	16dd\	.
16fn/	16cc\	.
16g/JJ	16b\JJ	.
16e/LL	8cc'\L)	.
16g/	.	.
16A#/	8cc#'\J	.
16g/JJ	.	.
=23	=23	=23
16B/LL	8dd'\L	.
16g/	.	.
16B/	8dd#'\	.
16g/JJ	.	.
16c/LL	8ee'\J	.
16g/	.	.
16d/	(16gg\LL	.
16g/JJ	16ff\JJ)	.
=24	=24	=24
16c/LL	(8.ee\L	.
16g/	.	.
16f#/	.	.
16g/JJ	32ff\LL	.
.	32ee\JJJ	.
16B/LL	8ddn\)	.
16g/	.	.
16f#/	8r	.
16g/JJ	.	.
=25	=25	=25
16B/LL	(4.ff\	.
16g/	.	.
16f#/	.	.
16g/JJ	.	.
16B/LL	.	.
16g/	.	.
.	16ggQ/LL	.
.	16ffQ/	.
.	16eeQ/	.
.	16ffQ/JJ	.
16c/	16aa\LL	.
16g/JJ	16gg\JJ	.
=26	=26	=26
16d/LL	16ff\LL	.
16g/	16ee\	.
16e/	16dd\	.
16g/JJ	16cc\JJ	.
16fn/LL	16b\LL)	.
16g/	16cc'\	.
16d/	16dd'\	.
16g/JJ	16ee'\JJ	.
=27	=27	=27
16B/LL	16ff'\LL	.
16g/	16gg'\	.
16d/	16aa'\	.
16g/JJ	16bb'\JJ	.
16B/LL	16ccc'\LL	.
16g/	16ddd'\	.
16G/	16eee'\	.
16g/JJ	16fff'\JJ	.
=28	=28	=28
16c/LL	(4ddd#\	.
16g/	.	.
16e/	.	.
16g/JJ	.	.
16c/LL	8eee\)	.
16g/	.	.
16e/	8r	.
16g/JJ	.	.
=29	=29	=29
(24c/LL	([8ee\L	.
24e/	.	.
24a/J	.	.
8cc/J)	24ee\L]	.
.	24aa\	.
.	24ccc\JJ	.
4r	24eee\LL	.
.	24ccc\	.
.	24aa\JJ	.
.	24ccc\LL	.
.	24aa\	.
.	24ee\JJ)	.
=30	=30	=30
(24B/LL	([8dd\L	.
24d/	.	.
24g/J	.	.
8b/J)	24dd\L]	.
.	24gg\	.
.	24bb\JJ	.
4r	24ddd\LL	.
.	24bb\	.
.	24gg\JJ	.
.	24bb\LL	.
.	24gg\	.
.	24dd\JJ)	.
*clefF4	*	*
=31	=31	=31
8F#\ 8A\ 8d\	24r	.
.	(24dd\LL	.
.	24aa\JJ	.
8r	24ccc\LL	.
.	24aa\	.
.	24dd\JJ)	.
8G\ 8B\ 8d\	24r	.
.	(24dd\LL	.
.	24gg\JJ	.
8r	24bb\LL	.
.	24gg\	.
.	24dd\JJ)	.
=32	=32	=32
(16D\LL	(16.aa\LL	.
16d\	.	.
.	32ff#\Jk	.
16c#\	8dd\J)	.
16d\JJ	.	.
16c#\LL	4r	.
16d\	.	.
16cn\	.	.
16d\JJ)	.	.
=33	=33	=33
.	32gQ/	.
(16B\LL	([4gg\	.
16d\	.	.
16G\	.	.
16d\JJ	.	.
16B\LL	16gg\LL]	.
16d\	16ff#\	.
16G\	16ee\	.
16d\JJ	16dd\JJ)	.
=34	=34	=34
16A\LL	(16dd\LL	.
16d\	16cc\	.
16G\	16b\	.
16d\JJ	16a\JJ	.
16F#\LL	8dd'\L)	.
16d\	.	.
16D\	8cc'\J	.
16d\JJ)	.	.
=35	=35	=35
(16G\LL	(8a#/L	.
16d\	.	.
16c#\	8b/J)	.
16d\JJ	.	.
16c#\LL	4r	.
16d\	.	.
16e\	.	.
16d\JJ	.	.
=36	=36	=36
16cn\LL	2r	.
16d\	.	.
16B\	.	.
16d\JJ	.	.
16c\LL	.	.
16d\	.	.
16A\	.	.
16d\JJ)	.	.
=37	=37	=37
.	32gQ/	.
(16B\LL	([4gg\	.
16d\	.	.
16G\	.	.
16d\JJ	.	.
16B\LL	16gg\LL]	.
16d\	16ff#\	.
16G\	16ee\	.
16d\JJ	16dd\JJ)	.
=38	=38	=38
16A\LL	(16dd\LL	.
16d\	16cc\	.
16G\	16b\	.
16d\JJ	16a\JJ	.
16F#\LL	8dd'\L)	.
16d\	.	.
16D\	8cc'\J	.
16d\JJ)	.	.
=39	=39	=39
16G\LL	8b'\	.
16d\	.	.
16B\	8r	.
16d\JJ	.	.
16G\LL	(16.ee\LL	.
16e\	.	.
.	32ff#\k	.
16c\	16gg\)	.
16e\JJ	16gg'\JJ	.
=40	=40	=40
16G\LL	8gg\	.
16d\	.	.
16B\	8r	.
16d\JJ	.	.
16Fn\LL	(16.aa\LL	.
16c\	.	.
.	32bb\k	.
16A\	16ccc\)	.
16c\JJ	16ccc'\JJ	.
=41	=41	=41
16E\LL	8ccc\	.
16c\	.	.
16G\	8r	.
16c\JJ	.	.
16C\LL	(16.ccc\LL	.
16G\	.	.
.	32ddd\k	.
16E\	16eee\)	.
16G\JJ	16eee\JJ	.
=42	=42	=42
16D\LL	(16eee\LL	.
16B\	16ddd\)	.
16G\	16ccc'\	.
16B\JJ	16bb'\JJ	.
16D\LL	8aa'\L	.
16c\	.	.
16F#\	8ddd'\J	.
16c\JJ	.	.
=43	=43	=43
16G\LL	(8ccc\L	.
16d\	.	.
16B\	8bb\J)	.
16d\JJ	.	.
16G\LL	(16.ee\LL	.
16e\	.	.
.	32ff#\k	.
16c\	16gg\)	.
16e\JJ	16gg'\JJ	.
=44	=44	=44
16G\LL	8gg\	.
16d\	.	.
16B\	8r	.
16d\JJ	.	.
16Fn\LL	(16.aa\LL	.
16c\	.	.
.	32bb\k	.
16A\	16ccc\)	.
16c\JJ	16ccc\JJ	.
=45	=45	=45
16E\LL	8ccc\	.
16c\	.	.
16G\	8r	.
16c\JJ	.	.
16C\LL	(16.ccc\LL	.
16G\	.	.
.	32ddd\k	.
16E\	16eee\)	.
16G\JJ	16eee'\JJ	.
=46	=46	=46
16D\LL	(16eee\LL	.
16B\	16ddd\)	.
16G\	16ccc'\	.
16B\JJ	16bb'\JJ	.
16D\LL	(16bb\LL	.
16c\	16aa\)	.
16A\	16gg'\	.
16c\JJ	16ff#'\JJ	.
=47	=47	=47
8r	([8ddd\L	.
8G\ (8B\L	24ddd\L]	.
.	24bb\	.
.	24gg\JJ	.
8A\ 8c\	24ff#\LL	.
.	24aa\	.
.	24dd\JJ	.
8B\ 8d\J)	24gg\LL	.
.	24bb\	.
.	24dd\JJ)	.
=48	=48	=48
8r	([8aa\L	.
8D\ (8F#\L	24aa\L]	.
.	24ff#\	.
.	24dd\JJ	.
8E\ 8G\	24cc#\LL	.
.	24dd\	.
.	24a\JJ	.
8F#\ 8A\J)	24ccn\LL	.
.	24dd\	.
.	24a\JJ)	.
=49	=49	=49
8r	(8ccc\L	.
8G\ (8B\L	24ddd\L)	.
.	24bb\	.
.	24gg\JJ	.
8A\ 8c\	24ff#\LL	.
.	24aa\	.
.	24dd\JJ	.
8B\ 8d\J)	24gg\LL	.
.	24bb\	.
.	24dd\JJ)	.
=50	=50	=50
8r	([8aa\L	.
8D\ (8F#\L	24aa\L]	.
.	24ff#\	.
.	24dd\JJ	.
8E\ 8G\	24cc#\LL	.
.	24dd\	.
.	24a\JJ	.
8F#\ 8A\J)	24ccn\LL	.
.	24dd\	.
.	24a\JJ)	.
=51	=51	=51
4G\	(24b/LL	.
.	24g/	.
.	24b/JJ	.
.	24dd\LL	.
.	24b\	.
.	24dd\JJ	.
4r	24gg\LL	.
.	24dd\	.
.	24gg\JJ	.
.	24bb\LL	.
.	24gg\	.
.	24bb\JJ	.
=52	=52	=52
2GG/ 2BB/ 2D/ [2G/	24ddd\LL	.
.	24bb\	.
.	24ddd\JJ	.
.	24fffn\LL	.
.	24ddd\	.
.	24bb\JJ	.
.	24gg\LL	.
.	24ffn\	.
.	24dd\JJ	.
.	24b/LL	.
.	24g/	.
.	24fn/JJ	.
=53	=53	=53
4C\ 4G\]	16e\LL)	.
.	(16ee\	.
.	16dd#\	.
.	16ee\JJ	.
4r	16dd#\LL	.
.	16ee\	.
.	16dd#\	.
.	16ee\JJ)	.
=54	=54	=54
*^	*^	*
8r	8r	(4.g/	4.r	.
(8B-/L	8C#\	.	.	.
8Bn/	4D\	.	.	.
8cn/J)	.	16b/LL	8f#\	.
.	.	16a/JJ)	.	.
*	*	*v	*v	*
=55	=55	=55	=55
4B/	4G\	(24b/LL	f
.	.	24g/	.
.	.	24b/JJ	.
.	.	24dd\LL	.
.	.	24b\	.
.	.	24dd\JJ	.
4r	4r	24gg\LL	.
.	.	24dd\	.
.	.	24gg\JJ	.
.	.	24bb\LL	.
.	.	24gg\	.
.	.	24bb\JJ	.
*v	*v	*	*
=56	=56	=56
2GG/ 2BB/ 2D/ [2G/	24ddd\LL	.
.	24bb\	.
.	24ddd\JJ	.
.	24fffn\LL	.
.	24ddd\	.
.	24bb\JJ	.
.	24gg\LL	.
.	24ffn\	.
.	24dd\JJ	.
.	24b/LL	.
.	24g/	.
.	24fn/JJ	.
=57	=57	=57
4C\ 4G\]	16e\LL)	.
.	(16ee\	.
.	16dd#\	.
.	16ee\JJ	.
4r	16dd#\LL	.
.	16ee\	.
.	16dd#\	.
.	16ee\JJ)	.
=58	=58	=58
4C#\ 4B-\	16r	.
.	(16gg\LL	.
.	16ff#\	.
.	16gg\JJ	.
4r	16ff#\LL	.
.	16gg\	.
.	16ff#\	.
.	16gg\JJ)	.
=59	=59	=59
16D\LL	(16gg\LL	.
16Bn\	16dd\)	.
16G\	16dd'\	.
16B\JJ	16dd'\JJ	.
16D\LL	(16ee\LL	.
16B\	16dd\)	.
16G\	16cc\	.
16B\JJ	16b'\JJ	.
=60	=60	=60
16D\LL	4b\	.
16d\	.	.
16G\	.	.
16d\JJ	.	.
16D\LL	(8.a/L	.
16c\	.	.
16F#\	.	.
16c\JJ	32g/LL	.
.	32a/JJJ	.
*clefG2	*	*
=61	=61	=61
16G/LL	8g/)	.
16B/	.	.
16g/	8r	.
16B/JJ	.	.
16G/LL	(8.dd\L	.
16B/	.	.
16g/	.	.
.	32ff#Q/	.
16B/JJ	32ee\LL	.
.	32dd\JJJ	.
=62	=62	=62
16G/LL	8ddd'\L)	.
16A/	.	.
16f#/	8ccc'\	.
16A/JJ	.	.
16G/LL	8bb'\	.
16c/	.	.
16f#/	8aa'\J	.
16c/JJ	.	.
=63	=63	=63
16G/LL	(4gg\	.
16B/	.	.
16g/	.	.
16B/JJ	.	.
16G/LL	8.dd\L	.
16B/	.	.
16g/	.	.
.	32ff#Q/	.
16B/JJ	32ee\LL	.
.	32dd\JJJ	.
=64	=64	=64
16G/LL	8ddd'\L)	.
16A/	.	.
16f#/	8ccc'\	.
16A/JJ	.	.
16G/LL	8bb'\	.
16c/	.	.
16f#/	8aa'\J	.
16c/JJ	.	.
=65	=65	=65
16G/LL	8gg\	.
16B/	.	.
16g/	8r	.
16B/JJ	.	.
.	32ddQ/	.
16G/LL	(8.ddd\L	.
16c/	.	.
16f#/	.	.
16c/JJ	48ccc\LL	.
.	48bb\	.
.	48aa\JJJ	.
=66	=66	=66
16G/LL	8gg\)	.
16B/	.	.
16g/	8r	.
16B/JJ	.	.
.	32ddQ/	.
16G/LL	(8.ddd\L	.
16c/	.	.
16f#/	.	.
16c/JJ	48ccc\LL	.
.	48bb\	.
.	48aa\JJJ	.
=67	=67	=67
4B/ 4g/	8gg\)	.
.	(16.d/LL	.
.	32g/JJk	.
*clefF4	*	*
8r	8b/L)	.
8D\	8c/ 8a/J	.
=68	=68	=68
8G/L	(4c/ 4a/	.
8D/	.	.
8GG/J	8B/) 8g/	.
8r	8r	.
=69:|!|:	=69:|!|:	=69:|!|:
*>B	*>B	*>B
*^	*	*
4d/	(8B\L	(8dd\L	.
.	8G\)	8b\	.
8d/L	8G'\	8b'\)	.
8d/J	8G'\J	8b'\J	.
=70	=70	=70	=70
.	.	16aQ/LL	.
.	.	16bQ/JJ	.
4r	(8B\L	(8dd\L	.
.	16A\Jk)	16cc\Jk)	.
.	16r	16r	.
4d/	4F#\	4a/	.
=71	=71	=71	=71
4d/	(8A\L	(8cc\L	.
.	16G\Jk)	16b\Jk)	.
.	16r	16r	.
4d/	(8B\L	(8dd\L	.
.	16A\Jk)	16cc\Jk)	.
.	16r	16r	.
=72	=72	=72	=72
4.f/	(4c\	(4ee\	.
.	8B\)	8dd\)	.
8r	8r	8r	.
*v	*v	*	*
=73	=73	=73
4r	(8dd\L	.
.	8g\)	.
4BB/ (4D/	(8g\	.
.	8g#\J)	.
=74	=74	=74
.	16f##Q/LL	.
.	16g#Q/JJ	.
4C\ 4E\	(8a\L	.
.	16cc\Jk)	.
.	16r	.
4C#\ 4G\)	4ee\	.
=75	=75	=75
*^	*	*
(4B/	2D\	(8dd/L	.
.	.	16gn/Jk)	.
.	.	16r	.
4A/)	.	(8cc/L	.
.	.	16f#/Jk)	.
.	.	16r	.
*v	*v	*	*
=76	=76	=76
[4G\ (4cn\	(4a/	.
8G\] 8B\)	8g/)	.
8r	8r	.
=77	=77	=77
16B\LL	(8dd\L	.
16d\	.	.
16G\	8b\)	.
16d\JJ	.	.
16G\LL	8b\	.
16d\	.	.
16G#\	8b\J	.
16d\JJ	.	.
=78	=78	=78
.	16aQ/LL	.
.	16bQ/JJ	.
16A\LL	(8dd\L	.
16d\	.	.
16Gn\	16cc\Jk)	.
16d\JJ	16r	.
16F#\LL	4a/	.
16d\	.	.
16D\	.	.
16d\JJ	.	.
*clefG2	*	*
=79	=79	=79
16G/LL	(8cc\L	.
16g/	.	.
16B/	16b\Jk)	.
16g/JJ	16r	.
16A/LL	(8dd\L	.
16g/	.	.
16c/	16cc\Jk)	.
16g/JJ	16r	.
=80	=80	=80
16c/LL	(4ee\	.
16g/	.	.
16e/	.	.
16g/JJ	.	.
16B/LL	8dd\)	.
16g/	.	.
16d/	8r	.
16g/JJ	.	.
=81	=81	=81
16A/LL	(8dd\L	.
16g/	.	.
16c/	16cc\Jk)	.
16g/JJ	16r	.
16B/LL	(8ee\L	.
16g/	.	.
16d/	16dd\Jk)	.
16g/JJ	16r	.
=82	=82	=82
16d/LL	(4ffn\	.
16g/	.	.
16fn/	.	.
16g/JJ	.	.
16c/LL	8ee\)	.
16g/	.	.
16e/	8r	.
16g/JJ	.	.
=83	=83	=83
16B/LL	(8ee\L	.
16g/	.	.
16d/	16dd\Jk)	.
16g/JJ	16r	.
16c/LL	(8ff\L	.
16g/	.	.
16e/	16ee\Jk)	.
16g/JJ	16r	.
=84	=84	=84
16e/LL	(4gg\	.
16g/	.	.
16f#/	.	.
16g/JJ	.	.
16d/LL	8ff\)	.
16g/	.	.
16f#/	8r	.
16g/JJ	.	.
=85	=85	=85
16c/LL	(8.ee\L	.
16g/	.	.
16f#/	.	.
16g/JJ	32ff\LL	.
.	32gg\JJJ	.
16B/LL	8ff\L)	.
16g/	.	.
16c/	8ee'\J	.
16g/JJ	.	.
=86	=86	=86
16G/LL	4dd\	.
16g/	.	.
16B/	.	.
16g/JJ	.	.
16G/LL	8r	.
16g/	.	.
16B/	8gg\	.
16g/JJ	.	.
=87	=87	=87
16G/LL	(8ff\L	.
16g/	.	.
16c/	8ee-\J)	.
16g/JJ	.	.
16G/LL	8r	.
16g/	.	.
16e-/	8cc\	.
16g/JJ	.	.
=88	=88	=88
16G/LL	(8b\L	.
16g/	.	.
16d/	8dd\J)	.
16g/JJ	.	.
16G/LL	8r	.
16g/	.	.
16B/	8gg\	.
16g/JJ	.	.
=89	=89	=89
16G/LL	8r	.
16g/	.	.
16c/	(16ff\LL	.
16g/JJ	16ee-\JJ)	.
16G/LL	8r	.
16g/	.	.
16e-/	(16dd\LL	.
16g/JJ	16cc\JJ)	.
=90	=90	=90
16G/LL	(8b\L	.
16g/	.	.
16d/	8dd\J)	.
16g/JJ	.	.
16G/LL	16r	.
16g/	(16gg\LL	.
16B/	16ff#\	.
16g/JJ	16gg\JJ)	.
=91	=91	=91
16A-/LL	16r	.
16g/	(16ee-\LL	.
16c/	16dd\	.
16g/JJ	16ee-\JJ)	.
16A-/LL	16r	.
16f#/	(16cc\LL	.
16c/	16b\	.
16f#/JJ	16cc\JJ)	.
=92	=92	=92
8G/ 8g/	(8b\L	.
8r	16dd\Jk)	.
.	16r	.
8G/ 8g/	(8b\L	.
8r	16dd\Jk)	.
.	16r	.
=93	=93	=93
8G/ 8g/	(8b\L	.
8r	16dd\Jk)	.
.	16r	.
4r	4r	.
=94	=94	=94
8G/ 8B/ 8d/ 8fn/	(8dd\L	.
8r	16ffn\Jk)	.
.	16r	.
8G/ 8B/ 8d/ 8f/	(8dd\L	.
8r	16ff\Jk)	.
.	16r	.
=95	=95	=95
8G/ 8B/ 8d/ 8f/	(8dd\L	.
8r	16ff\Jk)	.
.	16r	.
4r	4r	.
=96	=96	=96
*clefF4	*	*
8r	(8.een\L	.
8C\L	.	.
.	32ff\LL	.
.	32gg\JJJ	.
8E\	8cc\L)	.
8G\J	8b'\ 8dd'\J	.
=97	=97	=97
*	*^	*
8c\L	(8dd/L	8b\L	.
8C\J	16ff/L	8cc\J	.
.	16ee/JJ	.	.
8G/L	4r	4b\ 4dd\)	.
8GG/J	.	.	.
*	*v	*v	*
=98	=98	=98
8r	(8.ee\L	.
8C\L	.	.
.	32ff\LL	.
.	32gg\JJJ	.
8E\	8cc\L)	.
8G\J	8b'\ 8dd'\J	.
=99	=99	=99
8c\L	8dd\ (8ff\L	.
8C\J	8cc\ 8ee\J)	.
8G/L	4b\ 4dd\	.
8GG/J	.	.
=100	=100	=100
(8A\L	(8.ff\L	.
8c\	.	.
.	32gg\LL	.
.	32ff\JJJ	.
8G\	8ee\L)	.
8c\J	8ee'\J	.
=101	=101	=101
8F\L	(8.aa\L	.
8c\	.	.
.	32bb\LL	.
.	32ccc\JJJ	.
8E\	8gg\L)	.
8c\J)	8gg'\J	.
*clefG2	*	*
=102	=102	=102
8r	(16gg\LL	.
.	16ff\)	.
8B/ 8g/	(16ff\	.
.	16dd\JJ	.
8r	(16ff\LL)	.
.	16ee\)	.
8c/ 8g/	(16ee\	.
.	16cc\JJ)	.
*clefF4	*	*
=103	=103	=103
4G\ 4B\	(16cc#\LL	.
.	16dd\	.
.	16ee\	.
.	16dd\JJ	.
4r	16ccn\LL	.
.	16b\	.
.	16a\	.
.	16g\JJ)	.
=104	=104	=104
(16CC/LL	(8.ee\L	.
16EE/	.	.
16GG/	.	.
16C/JJ	32ff\LL	.
.	32gg\JJJ	.
16EE/LL	8cc\L)	.
16E/	.	.
16GG/	8b'\ 8dd'\J	.
16G/JJ	.	.
=105	=105	=105
*	*^	*
16C\LL	(8dd/L	8b\L	.
16E\	.	.	.
16G\	16ff/L	8cc\J	.
16c\JJ	16ee/JJ)	.	.
16GG/LL	4r	4b\ 4dd\	.
16BB/	.	.	.
16D/	.	.	.
16G/JJ)	.	.	.
*	*v	*v	*
=106	=106	=106
(16CC/LL	(8.ee\L	.
16EE/	.	.
16GG/	.	.
16C/JJ	32ff\LL	.
.	32gg\JJJ	.
16EE/LL	8cc\L)	.
16E/	.	.
16GG/	8b'\ 8dd'\J	.
16G/JJ	.	.
=107	=107	=107
16C\LL	8dd\ (8ff\L	.
16E\	.	.
16G\	8cc\ 8ee\J)	.
16c\JJ	.	.
16GG/LL	4b\ 4dd\	.
16BB/	.	.
16D/	.	.
16G/JJ)	.	.
=108	=108	=108
(16A\LL	(8.ff\L	.
16c\	.	.
16A\	.	.
16c\JJ	32gg\LL	.
.	32ff\JJJ	.
16G\LL	8ee\L)	.
16c\	.	.
16G\	8ee'\J	.
16c\JJ	.	.
=109	=109	=109
16F\LL	(8.aa\L	.
16c\	.	.
16F\	.	.
16c\JJ	32bb\LL	.
.	32ccc\JJJ	.
16E\LL	8gg\L)	.
16c\	.	.
16E\	8gg'\J	.
16c\JJ)	.	.
=110	=110	=110
*^	*	*
8r	8r	(16gg#\LL	.
.	.	16aa\	.
(8d/	8F\	16ff\	.
.	.	16dd\JJ	.
8e/L	4G\	8cc\L	.
8d/J)	.	8b\J)	.
*v	*v	*	*
=111	=111	=111
4c\ 4e\	24cc\LL	.
.	24g\	.
.	24ee\JJ	.
.	24cc\LL	.
.	24gg\	.
.	24ee\JJ	.
4r	24ccc\LL	.
.	24bb\	.
.	24aa\JJ	.
.	24gg\LL	.
.	24ff\	.
.	24ee\JJ	.
=112	=112	=112
*^	*	*
8r	8r	24cc#\LL	.
.	.	24dd\	.
.	.	24ff\JJ	.
8A/ 8d/	8F\	24aa\LL	.
.	.	24ff\	.
.	.	24dd\JJ	.
8c/ (8e/L	4G\	24gg\LL	.
.	.	24ee\	.
.	.	24ccn\JJ	.
8d/ 8f/J)	.	24ff\LL	.
.	.	24dd\	.
.	.	24b\JJ	.
*v	*v	*	*
=113	=113	=113
4c\ 4e\	24cc\LL	.
.	24g\	.
.	24ee\JJ	.
.	24cc\LL	.
.	24gg\	.
.	24ee\JJ	.
4r	24ccc\LL	.
.	24bb\	.
.	24aa\JJ	.
.	24gg\LL	.
.	24ff\	.
.	24ee\JJ	.
=114	=114	=114
*^	*	*
8r	8r	24cc#\LL	.
.	.	24dd\	.
.	.	24ff\JJ	.
8A/ 8d/	8F\	24aa\LL	.
.	.	24ff\	.
.	.	24dd\JJ	.
8c/ (8e/L	4G\	24gg\LL	.
.	.	24ee\	.
.	.	24ccn\JJ	.
8d/J)	.	24ff\LL	.
.	.	24dd\	.
.	.	24b\JJ	.
*v	*v	*	*
=115	=115	=115
8c\ 8e\L	8cc/L	.
8G'\J	8g'/J	.
4CC/ 4C/	4c/	.
*clefG2	*	*
=116	=116	=116
16c/LL	(4.ee\	.
16g/	.	.
16f#/	.	.
16g/JJ	.	.
16c/LL	.	.
16g/	.	.
.	32ffQ/LLL	.
.	32eeQ/	.
.	32ddQ/	.
.	32eeQ/JJJ	.
16d/	16gg\LL	.
16g/JJ	16ff\JJ	.
=117	=117	=117
16e/LL	16ee\LL	.
16g/	16dd\	.
16fn/	16cc\	.
16g/JJ	16b\JJ	.
16e/LL	8cc\L)	.
16g/	.	.
16A#/	8cc#'\J	.
16g/JJ	.	.
=118	=118	=118
16B/LL	8dd'\L	.
16g/	.	.
16B/	8dd#'\	.
16g/JJ	.	.
16c/LL	8ee'\J	.
16g/	.	.
16d/	(16gg\LL	.
16g/JJ	16ff\JJ)	.
=119	=119	=119
16c/LL	(8.ee\L	.
16g/	.	.
16f#/	.	.
16g/JJ	32ff\LL	.
.	32ee\JJJ	.
16B/LL	8ddn\)	.
16g/	.	.
16f#/	8r	.
16g/JJ	.	.
=120	=120	=120
16B/LL	(4.ff\	.
16g/	.	.
16f#/	.	.
16g/JJ	.	.
16B/LL	.	.
16g/	.	.
.	16ggQ/LL	.
.	16ffQ/	.
.	16eeQ/	.
.	16ffQ/JJ	.
16c/	16aa\LL	.
16g/JJ	16gg\JJ	.
=121	=121	=121
16d/LL	16ff\LL	.
16g/	16ee\	.
16e/	16dd\	.
16g/JJ	16cc\JJ	.
16fn/LL	16b\LL)	.
16g/	16cc'\	.
16d/	16dd'\	.
16g/JJ	16ee'\JJ	.
=122	=122	=122
16B/LL	16ff'\LL	.
16g/	16gg'\	.
16d/	16aa'\	.
16g/JJ	16bb'\JJ	.
16B/LL	16ccc'\LL	.
16g/	16ddd'\	.
16G/	16eee'\	.
16g/JJ	16fff'\JJ	.
=123	=123	=123
16c/LL	(4ddd#\	.
16g/	.	.
16e/	.	.
16g/JJ	.	.
16c/LL	8eee\)	.
16g/	.	.
16e/	8r	.
16g/JJ	.	.
*clefF4	*	*
=124	=124	=124
(24C\LL	([8b-\L	.
24E\	.	.
24G\J	.	.
8c\J)	24b-\L]	.
.	24ee\	.
.	24gg\JJ	.
4r	24bb-\LL	.
.	24gg\	.
.	24ee\JJ	.
.	24gg\LL	.
.	24ee\	.
.	24b-\JJ)	.
=125	=125	=125
(24FF/LL	([8a\L	.
24AA/	.	.
24C/J	.	.
8F/J)	24a\L]	.
.	24cc\	.
.	24ff\JJ	.
4r	24aa\LL	.
.	24ff\	.
.	24cc\JJ	.
.	24ff\LL	.
.	24cc\	.
.	24a\JJ)	.
=126	=126	=126
(24AA\LL	([8g\L	.
24C#\	.	.
24E\J	.	.
8A\J)	24g\L]	.
.	24cc#\	.
.	24ee\JJ	.
4r	24gg\LL	.
.	24ee\	.
.	24cc#\JJ	.
.	24ee\LL	.
.	24cc#\	.
.	24g\JJ)	.
=127	=127	=127
(24D\LL	([8f#\L	.
24F#\	.	.
24A\J	.	.
8d\J)	24f#\L]	.
.	24a\	.
.	24dd\JJ	.
4r	24ff#\LL	.
.	24dd\	.
.	24a\JJ	.
.	24dd\LL	.
.	24a\)	.
.	24f#\JJ	.
=128	=128	=128
(24BB\LL	([8fn\L	.
24D\	.	.
24G\J	.	.
8B\J)	24f\L]	.
.	24b\	.
.	24dd\JJ	.
4r	24ffn\LL	.
.	24dd\	.
.	24b\JJ	.
.	24dd\LL	.
.	24b\	.
.	24f\JJ)	.
=129	=129	=129
(24C\LL	([8e/L	.
24E\	.	.
24G\J	.	.
8c\J)	24e/L]	.
.	24g/	.
.	24cc/JJ	.
4r	24ee/LL	.
.	24cc/	.
.	24g/JJ	.
.	24cc/LL	.
.	24g/	.
.	24e/JJ)	.
=130	=130	=130
8F\ 8A\	24r	.
.	(24d/LL	.
.	24a/JJ	.
8r	24dd/LL	.
.	24a/	.
.	24d/JJ)	.
8F#\ 8A\	24r	.
.	(24d/LL	.
.	24a/JJ	.
8r	24cc/LL	.
.	24a/	.
.	24d/JJ)	.
*clefG2	*	*
=131	=131	=131
(16G/LL	4b\	.
16g/	.	.
16f#/	.	.
16g/JJ	.	.
16f#/LL	16r	.
16g/	16gg'\LL	.
16fn/	16aa'\	.
16g/JJ	16bb'\JJ	.
=132	=132	=132
16e/LL	([4ccc\	.
16g/	.	.
16c/	.	.
16g/JJ	.	.
16e/LL	16ccc\LL]	.
16g/	16bb\	.
16c/	16aa\	.
16g/JJ	16gg\JJ	.
=133	=133	=133
16d/LL	16gg\LL	.
16g/	16ff\	.
16c/	16ee\	.
16g/JJ	16dd\JJ	.
16B/LL	8gg'\L)	.
16g/	.	.
16G/	8ff'\J	.
16g/JJ)	.	.
=134	=134	=134
(16c/LL	(8dd#\L	.
16g/	.	.
16f#/	8ee\J)	.
16g/JJ	.	.
16f#/LL	4r	.
16g/	.	.
16a/	.	.
16g/JJ	.	.
=135	=135	=135
16fn/LL	8r	.
16g/	.	.
16e/	16r	.
16g/JJ	16gg'\	.
16f/LL	16aa-'\LL	.
16g/	16aan'\	.
16c/	16bb-'\	.
16g/JJ)	16bbn'\JJ	.
=136	=136	=136
(16e/LL	([4ccc\	.
16g/	.	.
16c/	.	.
16g/JJ	.	.
16e/LL	16ccc\LL]	.
16g/	16bb\	.
16c/	16aa\	.
16g/JJ	16gg\JJ)	.
=137	=137	=137
16d/LL	(16gg\LL	.
16g/	16ff\	.
16c/	16ee\	.
16g/JJ	16dd\JJ	.
16B/LL	8gg'\L)	.
16g/	.	.
16G/	8ff'\J	.
16g/JJ)	.	.
=138	=138	=138
16c/LL	8ee'\	.
16g/	.	.
16e/	8r	.
16g/JJ	.	.
16c/LL	(16.aa\LL	.
16a/	.	.
.	32bb\k	.
16f/	16ccc\)	.
16a/JJ	16ccc'\JJ	.
=139	=139	=139
16c/LL	8ccc\	.
16g/	.	.
16e/	8r	.
16g/JJ	.	.
16B-/LL	(16.ddd\LL	.
16f/	.	.
.	32eee\k	.
16d/	16fff\)	.
16f/JJ	16fff'\JJ	.
=140	=140	=140
16A/LL	8fff\	.
16f/	.	.
16c/	8r	.
16f/JJ	.	.
*clefF4	*	*
16F\LL	(16.ff\LL	.
16d\	.	.
.	32gg\k	.
16A\	16aa\)	.
16d\JJ	16aa'\JJ	.
=141	=141	=141
16G\LL	(16aa\LL	.
16e\	16gg\)	.
16c\	16ff'\	.
16e\JJ	16ee'\JJ	.
16G\LL	8dd'\L	.
16f\	.	.
16Bn\	8gg'\J	.
16f\JJ	.	.
=142	=142	=142
16C\LL	(8ff\L	.
16G\	.	.
16E\	8ee\J)	.
16G\JJ	.	.
16C\LL	(16.a\LL	.
16A\	.	.
.	32b\k	.
16F\	16cc\)	.
16A\JJ	16cc'\JJ	.
=143	=143	=143
16C\LL	8cc\	.
16G\	.	.
16E\	8r	.
16G\JJ	.	.
16BB-\LL	(16.dd\LL	.
16F\	.	.
.	32ee\k	.
16D\	16ff\)	.
16F\JJ	16ff'\JJ	.
=144	=144	=144
16AA/LL	8ff\	.
16F/	.	.
16C/	8r	.
16F/JJ	.	.
16FF/LL	(16.ff\LL	.
16D/	.	.
.	32gg\k	.
16AA/	16aa\)	.
16D/JJ	16aa\JJ	.
=145	=145	=145
16GG/LL	(16aa\LL	.
16E/	16gg\)	.
16C/	16ff'\	.
16E/JJ	16ee'\JJ	.
16GG/LL	(16ee\LL	.
16F/	16dd\)	.
16D/	16cc'\	.
16F/JJ	16b'\JJ	.
=146	=146	=146
8r	([8gg\L	.
8C\ (8E\L	24gg\L]	.
.	24ee\	.
.	24cc\JJ	.
8D\ 8F\	24b\LL	.
.	24dd\	.
.	24g\JJ	.
8E\ 8G\J)	24cc\LL	.
.	24ee\	.
.	24g\JJ)	.
=147	=147	=147
8r	([8dd\L	.
(8GG/ 8BB/L	24dd\L]	.
.	24b\	.
.	24g\JJ	.
8AA/ 8C/	24f#/LL	.
.	24g/	.
.	24d/JJ	.
8BB/) 8D/J	24fn/LL	.
.	24g/	.
.	24d/JJ)	.
=148	=148	=148
8r	([8gg\L	.
8C\ (8E\L	24gg\L]	.
.	24ee\	.
.	24cc\JJ	.
8D\ 8F\	24b\LL	.
.	24dd\	.
.	24g\JJ	.
8E\ 8G\J)	24cc\LL	.
.	24ee\	.
.	24g\JJ)	.
=149	=149	=149
8r	([8dd\L	.
(8GG/ 8BB/L	24dd\L]	.
.	24b\	.
.	24g\JJ	.
8AA/ 8C/	24f#/LL	.
.	24g/	.
.	24d/JJ	.
8BB/) 8D/J	24fn/LL	.
.	24g/	.
.	24d/JJ)	.
=150	=150	=150
4C/	(24e/LL	.
.	24c/	.
.	24e/JJ	.
.	24g/LL	.
.	24e/	.
.	24g/JJ	.
4r	24cc\LL	.
.	24g\	.
.	24cc\JJ	.
.	24ee\LL	.
.	24cc\	.
.	24ee\JJ	.
=151	=151	=151
*^	*	*
4.G/	2C\ [2c\	24gg\LL	.
.	.	24ee\	.
.	.	24gg\JJ	.
.	.	24bb-\LL	.
.	.	24gg\	.
.	.	24ee\JJ	.
.	.	24cc/LL	.
.	.	24b-/	.
.	.	24g/JJ	.
8B-/	.	24cc/LL	.
.	.	24b-/	.
.	.	24g#/JJ	.
*v	*v	*	*
=152	=152	=152
4F\ 4A\ 4c\]	16a\LL)	.
.	(16aa\	.
.	16gg#\	.
.	16aa\JJ	.
4r	16gg#\LL	.
.	16aa\	.
.	16gg#\	.
.	16aa\JJ)	.
=153	=153	=153
*^	*^	*
8r	8r	4.r	(4.cc\	.
(8e-/L	8F#\	.	.	.
8en/	4G\	.	.	.
8fn/J)	.	16ee/LL	8bn\	.
.	.	16dd/JJ)	.	.
*v	*v	*	*	*
*	*v	*v	*
=154	=154	=154
4c\ 4e\	(24cc\LL	.
.	24g\	.
.	24cc\JJ	<
.	24ee\LL	.
.	24cc\	.
.	24ee\JJ	.
4r	24gg\LL	.
.	24ee\	.
.	24gg\JJ	.
.	24ccc\LL	.
.	24ddd\	.
.	24ccc\JJ	.
=155	=155	=155
*^	*	*
4.G/	2C\ [2c\	24bb-\LL	.
.	.	24aa\	.
.	.	24gg\JJ	.
.	.	24ff\LL	.
.	.	24ee\	.
.	.	24dd\JJ	.
.	.	24cc\LL	.
.	.	24dd\	.
.	.	24cc\JJ	.
8B-/	.	24b-/LL	.
.	.	24a/	.
.	.	24g#/JJ	.
*v	*v	*	*
=156	=156	=156
4F\ 4A\ 4c\]	16a\LL)	.
.	(16aa\	.
.	16gg#\	.
.	16aa\JJ	.
4r	16gg#\LL	.
.	16aa\	.
.	16gg#\	.
.	16aa\JJ)	.
=157	=157	=157
4F#\ 4e-\	16r	.
.	(16ccc\LL	.
.	16bbn\	.
.	16ccc\JJ	.
4r	16bb\LL	.
.	16ccc\	.
.	16bb\	.
.	16ccc\JJ)	.
*clefG2	*	*
=158	=158	=158
16G/LL	(16ccc\LL	.
16en/	16gg\)	.
16c/	16gg'\	.
16e/JJ	16gg'\JJ	.
16G/LL	(16aa\LL	.
16e/	16gg\	.
16c/	16ff'\)	.
16e/JJ	16ee'\JJ	.
=159	=159	=159
16G/LL	(4ee\	.
16g/	.	.
16c/	.	.
16g/JJ	.	.
16G/LL	8.dd\L	.
16f/	.	.
16B/	.	.
16f/JJ	32cc\LL	.
.	32dd\JJJ	.
*clefF4	*	*
=160	=160	=160
16C\LL	8cc\)	p
16E\	.	.
16c\	8r	.
16E\JJ	.	.
16C\LL	(8.g/L	.
16E\	.	.
16c\	.	.
.	b8q/	.
16E\JJ	32a/LL	.
.	32g/JJJ	.
=161	=161	=161
16C\LL	8gg'\L)	.
16D\	.	.
16B\	8ff'\	.
16D\JJ	.	.
16C\LL	8ee'\	.
16F\	.	.
16B\	8dd'\J	.
16F\JJ	.	.
=162	=162	=162
16C\LL	(4cc\	.
16E\	.	.
16c\	.	.
16E\JJ	.	.
16C\LL	8.g/L	.
16E\	.	.
16c\	.	.
.	32bQ/	.
16E\JJ	32a/LL	.
.	32g/JJJ	.
=163	=163	=163
16C\LL	8gg'\L)	.
16D\	.	.
16B\	8ff'\	.
16D\JJ	.	.
16C\LL	8ee'\	.
16F\	.	.
16B\	8dd'\J	.
16F\JJ	.	.
=164	=164	=164
16C\LL	8cc\	.
16E\	.	.
16c\	8r	.
16E\JJ	.	.
.	32gQ/	.
16C\LL	(8.gg\L	.
16F\	.	.
16B\	.	.
16F\JJ	48ff\LL	.
.	48ee\	.
.	48dd\JJJ	.
=165	=165	=165
16C\LL	8cc\)	.
16E\	.	.
16c\	8r	.
16E\JJ	.	.
.	32gQ/	.
16C\LL	(8.gg\L	.
16F\	.	.
16B\	.	.
16F\JJ	32aa\LL	.
.	32bb\JJJ	.
=166	=166	=166
16C\LL	8ccc\)	.
16E\	.	.
16c\	8r	.
16E\JJ	.	.
16C\LL	(24gg\LL	.
.	24aa\	.
16F\	.	.
.	24gg\JJ	.
16B\	24ff\LL	.
.	24ee\	.
16F\JJ	.	.
.	24dd\JJ	.
=167	=167	=167
16C\LL	8cc\)	.
16E\	.	.
16c\	8r	.
16E\JJ	.	.
16C\LL	(24ff#\LL	.
.	24gg\	.
16F\	.	.
.	24gg#\JJ	.
16B\	24aa\LL	.
.	24bb-\	.
16F\JJ	.	.
.	24bbn\JJ	.
=168	=168	=168
*^	*	*
4E/	4C\	8ccc\)	.
.	.	(16.g/LL	p
.	.	32cc/JJk	.
4r	8r	8ee/L)	.
.	8G#\	8f/ 8dd/J	.
*v	*v	*	*
=169	=169	=169
4.A\	(4f/ (4dd/	.
.	8e/) 8cc/)	.
8r	8r	.
=170	=170	=170
8FF/ 8F/	8a\ 8dd\ 8ff\ 8aa\	f
8r	8r	.
8GGn/ 8Gn/	8d/ 8f/ 8g/ 8b/	.
8r	8r	.
=171	=171	=171
8CC/ 8EE/ 8GG/ 8C/	8c/ 8e/ 8g/ 8cc/	.
8r	8r	.
4r	4r	.
==:|!	==:|!	==:|!
*-	*-	*-
!!!SMS: Alte Mozart-Ausgabe, Band 20, Breitkopf &amp; H&auml;rtel 1877-1883.
!!!ONB: Stich und Druck von Breitkopf &amp; H&auml;rtel in Leipzig
!!!ONB: Ausgegeben 1878
!!!ENC: Craig Stuart Sapp
!!!END: 2009/10/08/
!!!title: @{OTL}, K 330 (300h), @{OMV}
!!!hum2abc: --no-tempo -s 0.65 --spacing 2.0 -p "%gracespace  0 6.0 12.0"
